X:1
T:Bold Doherty's
R:jig
M:6/8
L:1/8
K:Em
|EFG AGA|BEE GAB|cAc BGB|AGE EDB,|
|DEF G2A|BEE GAB|cAc BGB|AGE E2B,|
|DEF G2A|BEE GAB|cAc BGB|AGE EDB,|
|DEF G2A|BEE GAB|cAc BGB|AGE E2A|
|:Bee edB|BAB G2A|Bee edB|BAB d2d|
|Bee edB|BAB GAB|cAc BGB|1 AGE E2A:|2 AGE E2B,|]